X:69
T:Jigs simple chords 332
M:3/4
L:1/8
K:G
(3DEF[G2G,2B,2D2]G FE | F2<[G2G,2B,2D2] D2 | D[E2C,2E,2G,2]E c2 | B2<[A2D,2F,2A,2] A2 | D[E2C,2E,2G,2]c cB |
c[d2G,2B,2D2]B G2 | E[D2A,2C2E2]c B2 | A2<[G2G,2B,2D2] G2 | (3DEF[G2G,2B,2D2]G FE |
F2<[G2G,2B,2D2] D2 | D[E2C,2E,2G,2]E c2 | B2<[A2D,2F,2A,2] A2 | D[E2C,2E,2G,2]c cB |
c[d2G,2B,2D2]B G2 | E[D2A,2C2E2]c B2 | A2<[G2G,2B,2D2] G2 | B/c/[d2G,2B,2D2]d de |
d2<[^c2A,2C2E2G2] A2 | B[c2D,2F,2A,2C2]c cd | c2<[B2G,2B,2D2] Bc | d[e2C,2E,2G,2]c Ac |
e[d2G,2B,2D2]B G2 | E[D2A,2C2E2]c B2 | A2<[G2G,2B,2D2] G2 | B/c/[d2G,2B,2D2]d de |
d2<[^c2A,2C2E2G2] A2 | B[c2D,2F,2A,2C2]c cd | c2<[B2G,2B,2D2] Bc | d[e2C,2E,2G,2]c Ac |
e[d2G,2B,2D2]B G2 | E[D2A,2C2E2]c B2 | A2<[G2G,2B,2D2] G2 |


